public/icons/nextjs-icon.svg

<svg width="129" height="128" viewBox="0 0 129 128" fill="none" xmlns="http://www.w3.org/2000/svg">
<g clip-path="url(#clip0_45_72)">
<path d="M98.3999 0H30.3999C13.8314 0 0.399902 13.4315 0.399902 30V98C0.399902 114.569 13.8314 128 30.3999 128H98.3999C114.968 128 128.4 114.569 128.4 98V30C128.4 13.4315 114.968 0 98.3999 0Z" fill="#F4F2ED"/>
<path d="M61.1254 14.027C60.9104 14.0465 60.2259 14.115 59.6099 14.1635C45.4069 15.444 32.1029 23.108 23.6764 34.887C18.9849 41.4365 15.9834 48.8655 14.8499 56.735C14.4494 59.482 14.4004 60.2935 14.4004 64.0175C14.4004 67.742 14.4494 68.5535 14.8504 71.3C17.5674 90.078 30.9304 105.855 49.0534 111.701C52.2989 112.747 55.7199 113.46 59.6104 113.89C61.1259 114.056 67.6749 114.056 69.1904 113.89C75.9059 113.147 81.5949 111.486 87.2059 108.621C88.0659 108.182 88.2324 108.064 88.1149 107.967C88.0369 107.908 84.3709 102.991 79.9724 97.048L71.9764 86.2465L61.9564 71.4175C56.4434 63.265 51.9079 56.598 51.8684 56.598C51.8294 56.5885 51.7904 63.177 51.7709 71.222C51.7414 85.308 51.7319 85.875 51.5559 86.207C51.3019 86.686 51.1064 86.8815 50.6954 87.097C50.3829 87.253 50.1089 87.2825 48.6329 87.2825H46.9419L46.4919 86.999C46.2133 86.8245 45.987 86.578 45.8369 86.2855L45.6319 85.8455L45.6519 66.2465L45.6809 46.6375L45.9839 46.256C46.1404 46.051 46.4729 45.787 46.7074 45.66C47.1079 45.4645 47.2644 45.445 48.9554 45.445C50.9499 45.445 51.2819 45.523 51.8004 46.09C51.9469 46.2465 57.3719 54.4185 63.8629 64.262C70.4342 74.2255 77.0096 84.1863 83.5889 94.1445L91.5069 106.139L91.9079 105.875C95.4559 103.568 99.2099 100.283 102.181 96.862C108.506 89.599 112.582 80.743 113.951 71.3C114.351 68.5535 114.4 67.742 114.4 64.0175C114.4 60.293 114.351 59.482 113.951 56.735C111.233 37.957 97.8704 22.18 79.7474 16.3345C76.5509 15.298 73.1494 14.5845 69.3369 14.1545C68.3984 14.0565 61.9369 13.9495 61.1259 14.0275M81.5949 44.272C82.0639 44.5065 82.4454 44.956 82.5824 45.425C82.6604 45.6795 82.6799 51.1145 82.6604 63.3625L82.6309 80.9385L79.5324 76.1875L76.4239 71.437V58.661C76.4239 50.401 76.4629 45.7575 76.5214 45.5325C76.6779 44.9855 77.0199 44.5555 77.4894 44.301C77.8899 44.096 78.0369 44.076 79.5714 44.076C81.0184 44.076 81.2724 44.096 81.5949 44.272Z" fill="black"/>
</g>
<defs>
<clipPath id="clip0_45_72">
<rect width="128" height="128" fill="white" transform="translate(0.399902)"/>
</clipPath>
</defs>
</svg>

<svg xmlns="http://www.w3.org/2000/svg" width="129" height="128" fill="none"><g clip-path="url(#a)"><path fill="#F4F2ED" d="M98.4 0h-68C13.83 0 .4 13.431.4 30v68c0 16.569 13.431 30 30 30h68c16.568 0 30-13.431 30-30V30c0-16.569-13.432-30-30-30Z"/><path fill="#000" d="M61.125 14.027c-.215.02-.9.088-1.515.137-14.203 1.28-27.507 8.944-35.934 20.723-4.691 6.55-7.693 13.978-8.826 21.848-.4 2.747-.45 3.559-.45 7.282 0 3.725.05 4.537.45 7.283 2.717 18.778 16.08 34.555 34.203 40.401 3.246 1.046 6.667 1.759 10.557 2.189 1.516.166 8.065.166 9.58 0 6.716-.743 12.405-2.404 18.016-5.269.86-.439 1.026-.557.909-.654-.078-.059-3.744-4.976-8.143-10.919l-7.996-10.802-10.02-14.828c-5.513-8.153-10.048-14.82-10.088-14.82-.039-.01-.078 6.579-.097 14.624-.03 14.086-.04 14.653-.215 14.985-.254.479-.45.675-.86.89-.313.156-.587.186-2.063.186h-1.691l-.45-.284a1.825 1.825 0 0 1-.655-.713l-.205-.44.02-19.6.029-19.608.303-.382c.156-.205.489-.469.723-.596.4-.195.557-.215 2.248-.215 1.995 0 2.327.078 2.845.645.147.156 5.572 8.328 12.063 18.172 6.571 9.963 13.147 19.924 19.726 29.882l7.918 11.995.4-.264c3.549-2.307 7.303-5.592 10.274-9.013 6.325-7.263 10.401-16.119 11.77-25.562.4-2.746.449-3.558.449-7.282 0-3.725-.049-4.536-.449-7.283-2.718-18.778-16.08-34.555-34.204-40.4-3.196-1.037-6.598-1.75-10.41-2.18-.939-.098-7.4-.205-8.211-.127m20.469 30.244c.469.235.85.684.987 1.153.078.255.098 5.69.078 17.938l-.03 17.576-3.098-4.751-3.108-4.751V58.661c0-8.26.039-12.904.097-13.129.157-.546.499-.976.968-1.231.4-.205.548-.225 2.082-.225 1.447 0 1.701.02 2.024.196Z"/></g><defs><clipPath id="a"><path fill="#fff" d="M.4 0h128v128H.4z"/></clipPath></defs></svg>
